X: 3
T: THE BUNCH OF CURRANTS
R: jig
Z: 2006 John Chambers <jc@trillian.mit.edu>
B: "Rinnci na h-\'Eireann" Elizabeth Burchenal, ed. G.Schirmer (1925) p.129
M: 6/8
L: 1/8
%Q: 3/8=126
K: G
d/c/ \
| "G"B2B B2d |  "D"c2A A2c | "G"B2G     G2B | "D"AFD D2D \
| "G"B2B B2d | "Am"c2A A2c | "G"B2G "D7"AGF | "G"G3- G2 :|
|: d/e/ \
| "G7"=f2d   d2e | "G7"=f2d "Am"c2A | "G7"G2=f    f2g | "G7"a=fd d2e \
| "G7"f2a "C"g2e | "G7"=f2d "Am"c2A |  "G"G2B "D7"AGF |  "G"G3-  G2 :|

%%sep 2 1 500

